brandFactory_export/2.Regular/Bateria completa_llena_2Regular.svg

<?xml version="1.0" encoding="UTF-8"?>
<svg width="24px" height="24px" viewBox="0 0 24 24" version="1.1" xmlns="http://www.w3.org/2000/svg" xmlns:xlink="http://www.w3.org/1999/xlink">
    <title>2.Regular/Bateria completa_llena_2Regular</title>
    <g id="Symbols" stroke="none" stroke-width="1" fill="none" fill-rule="evenodd">
        <g id="2.Regular/Bateria-completa_llena_2Regular" fill="#5CB615" fill-rule="nonzero">
            <path d="M18.7310924,19.7714286 L18.7310924,6.4605042 C18.7310924,5.4789916 18.4991597,4.77647059 18.0252101,4.31596639 C17.5512605,3.85210084 16.8285714,3.62689076 15.8168067,3.62689076 L8.9697479,3.62689076 C7.96806723,3.62689076 7.2487395,3.85882353 6.76470588,4.33277311 C6.28739496,4.80336134 6.05546218,5.49579832 6.05546218,6.4605042 L6.05546218,19.7714286 C6.05546218,20.7630252 6.28739496,21.4689076 6.76470588,21.9260504 C7.23865546,22.3831933 7.95798319,22.605042 8.9697479,22.605042 L15.8168067,22.605042 C16.8252101,22.605042 17.5478992,22.3831933 18.0218487,21.9260504 C18.4957983,21.4689076 18.7277311,20.7630252 18.7310924,19.7714286 Z M10.2369748,1.81176471 L10.2369748,2.61176471 L14.5462185,2.61176471 L14.5462185,1.81176471 C14.5462185,1.37142857 14.4084034,1.23697479 14.3647059,1.19327731 C14.3210084,1.14957983 14.1831933,1.01512605 13.7294118,1.01512605 L11.0605042,1.01512605 C10.6134454,1.01512605 10.4722689,1.15294118 10.4252101,1.2 C10.3781513,1.24369748 10.2369748,1.38151261 10.2369748,1.81176471 L10.2369748,1.81176471 Z M18.7647059,3.6 C19.4436975,4.26218487 19.7731092,5.19663866 19.7731092,6.4605042 L19.7731092,19.7714286 C19.7731092,21.0487395 19.4403361,21.989916 18.7546218,22.6487395 C18.0756303,23.3042017 17.1142857,23.6235294 15.8168067,23.6235294 L8.9697479,23.6235294 C7.67226891,23.6235294 6.71092437,23.3042017 6.03193277,22.6487395 C5.34621849,21.989916 5.01344538,21.0487395 5.01344538,19.7714286 L5.01344538,6.4605042 C5.01344538,5.21680672 5.34285714,4.28907563 6.02521008,3.62016807 C6.71428571,2.94117647 7.6789916,2.61176471 8.97310924,2.61176471 L9.19831933,2.61176471 L9.19831933,1.81176471 C9.19831933,1.25042017 9.36302521,0.803361345 9.68571429,0.487394958 C10.0084034,0.161344538 10.4722689,0 11.0571429,0 L13.7260504,0 C14.3142857,0 14.7781513,0.157983193 15.1008403,0.477310924 C15.4268908,0.793277311 15.5882353,1.24369748 15.5882353,1.81176471 L15.5882353,2.61176471 L15.8134454,2.61176471 C17.1176471,2.61176471 18.0857143,2.93445378 18.7647059,3.6 Z M16.6672269,19.0084034 L16.6672269,6.36302521 L8.11596639,6.36302521 L8.11596639,19.0084034 C8.11596639,19.8016807 8.77815126,20.4470588 9.59495798,20.4470588 L15.1882353,20.4470588 C16.0016807,20.4470588 16.6672269,19.8016807 16.6672269,19.0084034 Z M17.1882353,5.34789916 C17.4773109,5.34789916 17.7092437,5.57310924 17.7092437,5.85546218 L17.7092437,19.0084034 C17.7092437,20.3630252 16.5798319,21.4621849 15.1848739,21.4621849 L9.59495798,21.4621849 C8.20336134,21.4621849 7.07058824,20.3630252 7.07058824,19.0084034 L7.07058824,5.85546218 C7.07058824,5.57310924 7.30588235,5.34789916 7.59159664,5.34789916 L17.1882353,5.34789916 Z" id="Bateria-completa_llena_2Regular"></path>
        </g>
    </g>
</svg>

<svg width="24" height="24" viewBox="0 0 24 24" xmlns="http://www.w3.org/2000/svg"><path d="M18.731 19.771V6.461c0-.982-.232-1.685-.706-2.145-.474-.464-1.196-.69-2.208-.69H8.97c-1.002 0-1.721.233-2.205.707-.478.47-.71 1.163-.71 2.128v13.31c0 .992.232 1.698.71 2.155.474.457 1.193.679 2.205.679h6.847c1.008 0 1.73-.222 2.205-.679.474-.457.706-1.163.71-2.155zm-8.494-17.96v.8h4.31v-.8c0-.44-.139-.574-.182-.618-.044-.043-.182-.178-.636-.178h-2.668c-.448 0-.589.138-.636.185-.047.044-.188.182-.188.612zM18.765 3.6c.679.662 1.008 1.597 1.008 2.86v13.311c0 1.278-.333 2.219-1.018 2.878-.68.655-1.64.975-2.938.975H8.97c-1.298 0-2.26-.32-2.938-.975-.686-.66-1.019-1.6-1.019-2.878V6.461c0-1.244.33-2.172 1.012-2.84.69-.68 1.654-1.01 2.948-1.01h.225v-.8c0-.56.165-1.008.488-1.324.322-.326.786-.487 1.371-.487h2.67c.587 0 1.051.158 1.374.477.326.316.487.767.487 1.335v.8h.225c1.305 0 2.273.322 2.952.988zm-2.098 15.408V6.363H8.116v12.645c0 .794.662 1.44 1.479 1.44h5.593c.814 0 1.48-.646 1.48-1.44zm.521-13.66c.29 0 .521.225.521.507v13.153c0 1.355-1.13 2.454-2.524 2.454h-5.59c-1.392 0-2.524-1.099-2.524-2.454V5.855c0-.282.235-.507.52-.507h9.597z" fill="#5CB615" fill-rule="nonzero"/></svg>
